svg/fluentui-system-icons/ic_fluent_panel_left_focus_right_20_filled.svg

<svg width="20" height="20" viewBox="0 0 20 20" fill="none" xmlns="http://www.w3.org/2000/svg">
<path d="M16 16C17.1046 16 18 15.1046 18 14V6C18 4.89543 17.1046 4 16 4L4 4C2.89543 4 2 4.89543 2 6L2 14C2 15.1046 2.89543 16 4 16L16 16ZM7 5L7 15L4 15C3.44772 15 3 14.5523 3 14L3 6C3 5.44771 3.44772 5 4 5L7 5Z" fill="#212121"/>
</svg>

<svg xmlns="http://www.w3.org/2000/svg" width="20" height="20"><path d="M16 16a2 2 0 0 0 2-2V6a2 2 0 0 0-2-2H4a2 2 0 0 0-2 2v8a2 2 0 0 0 2 2h12ZM7 5v10H4a1 1 0 0 1-1-1V6a1 1 0 0 1 1-1h3Z"/></svg>
